svg/google_controller_off.svg

<svg xmlns="http://www.w3.org/2000/svg" viewBox="0 0 24 24"><path d="M2 5.27 3.28 4 20 20.72 18.73 22l-6-6H7.97L5 19c-.33.3-.77.5-1.25.5A1.75 1.75 0 0 1 2 17.75v-.25l1-7.38c.1-1.03.53-1.95 1.19-2.66zM5 10v1h2v2h1v-1.73L6.73 10zm11.5-4c2.36 0 4.29 1.81 4.5 4.12l1 7.38v.25c0 .66-.36 1.25-.9 1.53L7.82 6zm0 2a.75.75 0 0 0-.75.75.75.75 0 0 0 .75.75.75.75 0 0 0 .75-.75.75.75 0 0 0-.75-.75m-1.75 1.75a.75.75 0 0 0-.75.75.75.75 0 0 0 .75.75.75.75 0 0 0 .75-.75.75.75 0 0 0-.75-.75m3.5 0a.75.75 0 0 0-.75.75.75.75 0 0 0 .75.75.75.75 0 0 0 .75-.75.75.75 0 0 0-.75-.75M16.5 11.5a.75.75 0 0 0-.75.75.75.75 0 0 0 .75.75.75.75 0 0 0 .75-.75.75.75 0 0 0-.75-.75"/></svg>

<?xml version="1.0" encoding="UTF-8"?><!DOCTYPE svg PUBLIC "-//W3C//DTD SVG 1.1//EN" "http://www.w3.org/Graphics/SVG/1.1/DTD/svg11.dtd"><svg xmlns="http://www.w3.org/2000/svg" xmlns:xlink="http://www.w3.org/1999/xlink" version="1.1" id="mdi-google-controller-off" width="24" height="24" viewBox="0 0 24 24"><path d="M2,5.27L3.28,4L20,20.72L18.73,22L12.73,16H7.97L5,19C4.67,19.3 4.23,19.5 3.75,19.5A1.75,1.75 0 0,1 2,17.75V17.5L3,10.12C3.1,9.09 3.53,8.17 4.19,7.46L2,5.27M5,10V11H7V13H8V11.27L6.73,10H5M16.5,6C18.86,6 20.79,7.81 21,10.12L22,17.5V17.75C22,18.41 21.64,19 21.1,19.28L7.82,6H16.5M16.5,8A0.75,0.75 0 0,0 15.75,8.75A0.75,0.75 0 0,0 16.5,9.5A0.75,0.75 0 0,0 17.25,8.75A0.75,0.75 0 0,0 16.5,8M14.75,9.75A0.75,0.75 0 0,0 14,10.5A0.75,0.75 0 0,0 14.75,11.25A0.75,0.75 0 0,0 15.5,10.5A0.75,0.75 0 0,0 14.75,9.75M18.25,9.75A0.75,0.75 0 0,0 17.5,10.5A0.75,0.75 0 0,0 18.25,11.25A0.75,0.75 0 0,0 19,10.5A0.75,0.75 0 0,0 18.25,9.75M16.5,11.5A0.75,0.75 0 0,0 15.75,12.25A0.75,0.75 0 0,0 16.5,13A0.75,0.75 0 0,0 17.25,12.25A0.75,0.75 0 0,0 16.5,11.5Z" /></svg>
